X:5
T:The Disturber
R:reel
D:Laments and Merry Melodies, Theresa Morrison
Z:Paul Stewart Cranford (P.S.C.), <http://www.cranfordpub.com>
Q:333
L:1/8
M:C|
K:D
G|F2 AB AFED|FAAB d2 dA|F2 AB AFED|EFGF E2 EG|
F2 AB AFED|FAAB d2 de|f2 ef edBd|AFED E2 E:|
|:A|d2 df edBd|AFAB d2 de|f2 af edef|edef e2 dA|
d2 df edBd|AFAB d2 de|f2 ef edBd|AFED E2 E:|
